(generated by ImplicitCAD, based of hacklab wiki example)
M63 P0 (laser off)
G0 Z0.002 (laser off)
G21 (units=mm)
F400 (set feedrate)
M3 S1 (enable laser)

G00 X40.8247 Y-28.7025
M62 P0 (laser on)
G01 X40.5060 Y-28.9860
G01 X40.0832 Y-29.0421
G01 X39.6995 Y-28.8598
G01 X39.4738 Y-28.5000
G01 X39.5199 Y-27.9852
G01 X39.8859 Y-27.6202
G01 X40.3996 Y-27.5783
G01 X40.8247 Y-27.8698
G01 X40.9393 Y-28.1747
G01 X40.9232 Y-28.5000
G01 X40.8247 Y-28.7025
M63 P0 (laser off)

G00 X-50.3505 Y-21.6533
M62 P0 (laser on)
G01 X-50.6411 Y-21.3892
G01 X-50.7499 Y-21.0118
G01 X-50.6532 Y-20.6315
G01 X-50.3726 Y-20.3571
G01 X-50.3505 Y-20.3370
G01 X-49.9945 Y-20.2500
G01 X-49.6441 Y-20.3571
G01 X-49.2785 Y-20.7952
G01 X-49.3422 Y-21.3623
G01 X-49.7855 Y-21.7187
G01 X-50.3505 Y-21.6533
M63 P0 (laser off)

G00 X-50.3505 Y20.3369
M62 P0 (laser on)
G01 X-50.3726 Y20.3571
G01 X-50.6532 Y20.6315
G01 X-50.7499 Y21.0118
G01 X-50.6411 Y21.3891
G01 X-50.3505 Y21.6532
G01 X-49.7855 Y21.7187
G01 X-49.3422 Y21.3623
G01 X-49.2785 Y20.7952
G01 X-49.6441 Y20.3571
G01 X-49.9945 Y20.2500
G01 X-50.3505 Y20.3369
M63 P0 (laser off)

G00 X50.3505 Y20.3369
M62 P0 (laser on)
G01 X49.9945 Y20.2500
G01 X49.6441 Y20.3571
G01 X49.2785 Y20.7952
G01 X49.3422 Y21.3623
G01 X49.7855 Y21.7187
G01 X50.3505 Y21.6532
G01 X50.6411 Y21.3892
G01 X50.7499 Y21.0118
G01 X50.6532 Y20.6315
G01 X50.3726 Y20.3571
G01 X50.3505 Y20.3369
M63 P0 (laser off)

G00 X50.3505 Y-21.6533
M62 P0 (laser on)
G01 X49.7855 Y-21.7187
G01 X49.3422 Y-21.3623
G01 X49.2785 Y-20.7952
G01 X49.6441 Y-20.3571
G01 X49.9945 Y-20.2500
G01 X50.3505 Y-20.3369
G01 X50.3726 Y-20.3571
G01 X50.6532 Y-20.6315
G01 X50.7499 Y-21.0118
G01 X50.6411 Y-21.3892
G01 X50.3505 Y-21.6533
M63 P0 (laser off)

G00 X14.9691 Y14.2864
M62 P0 (laser on)
G01 X14.6152 Y14.5304
G01 X14.4534 Y14.9286
G01 X14.4720 Y15.1804
G01 X14.5731 Y15.4118
G01 X14.7453 Y15.5965
G01 X14.9691 Y15.7136
G01 X15.3337 Y15.7380
G01 X15.6665 Y15.5873
G01 X15.8897 Y15.2946
G01 X15.9284 Y14.9286
G01 X15.8396 Y14.6083
G01 X15.6075 Y14.3703
G01 X15.2977 Y14.2564
G01 X14.9691 Y14.2864
M63 P0 (laser off)

G00 X-9.5258 Y-28.9993
M62 P0 (laser on)
G01 X-9.8353 Y-29.0504
G01 X-10.1386 Y-28.9705
G01 X-10.3820 Y-28.7743
G01 X-10.5322 Y-28.5000
G01 X-10.5196 Y-28.0899
G01 X-10.3008 Y-27.7429
G01 X-9.9339 Y-27.5633
G01 X-9.5258 Y-27.5815
G01 X-9.3015 Y-27.7409
G01 X-9.1329 Y-27.9584
G01 X-9.0540 Y-28.2240
G01 X-9.0768 Y-28.5000
G01 X-9.2423 Y-28.8027
G01 X-9.5258 Y-28.9993
M63 P0 (laser off)

G00 X-46.2680 Y42.6097
M62 P0 (laser on)
G01 X-46.4914 Y42.7347
G01 X-46.6533 Y42.9330
G01 X-46.7390 Y43.1734
G01 X-46.7391 Y43.4286
G01 X-46.5794 Y43.7775
G01 X-46.2680 Y44.0017
G01 X-45.9458 Y44.0493
G01 X-45.6337 Y43.9557
G01 X-45.3895 Y43.7369
G01 X-45.2779 Y43.4286
G01 X-45.2977 Y43.0380
G01 X-45.5258 Y42.7202
G01 X-45.8814 Y42.5607
G01 X-46.2680 Y42.6097
M63 P0 (laser off)

G00 X-46.2680 Y-44.0017
M62 P0 (laser on)
G01 X-46.5794 Y-43.7775
G01 X-46.7391 Y-43.4286
G01 X-46.7390 Y-43.1734
G01 X-46.6533 Y-42.9330
G01 X-46.4914 Y-42.7347
G01 X-46.2680 Y-42.6097
G01 X-45.8814 Y-42.5607
G01 X-45.5258 Y-42.7202
G01 X-45.2977 Y-43.0380
G01 X-45.2779 Y-43.4286
G01 X-45.3895 Y-43.7369
G01 X-45.6337 Y-43.9558
G01 X-45.9458 Y-44.0493
G01 X-46.2680 Y-44.0017
M63 P0 (laser off)

G00 X-9.5258 Y57.6032
M62 P0 (laser on)
G01 X-9.8957 Y57.5574
G01 X-10.2420 Y57.6953
G01 X-10.4802 Y57.9853
G01 X-10.5309 Y58.3571
G01 X-10.4399 Y58.6925
G01 X-10.1949 Y58.9389
G01 X-9.8675 Y59.0482
G01 X-9.5258 Y58.9993
G01 X-9.1964 Y58.7465
G01 X-9.0521 Y58.3571
G01 X-9.0721 Y58.1207
G01 X-9.1649 Y57.9023
G01 X-9.3214 Y57.7238
G01 X-9.5258 Y57.6032
M63 P0 (laser off)

G00 X4.0825 Y-44.0467
M62 P0 (laser on)
G01 X3.8018 Y-44.0246
G01 X3.5491 Y-43.9006
G01 X3.3599 Y-43.6921
G01 X3.2609 Y-43.4286
G01 X3.2818 Y-43.0851
G01 X3.4539 Y-42.7872
G01 X3.7409 Y-42.5974
G01 X4.0825 Y-42.5558
G01 X4.3714 Y-42.6496
G01 X4.5993 Y-42.8503
G01 X4.7290 Y-43.1250
G01 X4.7391 Y-43.4286
G01 X4.6607 Y-43.6563
G01 X4.5141 Y-43.8474
G01 X4.3145 Y-43.9822
G01 X4.0825 Y-44.0467
M63 P0 (laser off)

G00 X4.0825 Y42.5558
M62 P0 (laser on)
G01 X3.7409 Y42.5974
G01 X3.4539 Y42.7872
G01 X3.2818 Y43.0851
G01 X3.2609 Y43.4286
G01 X3.3599 Y43.6921
G01 X3.5491 Y43.9006
G01 X3.8018 Y44.0246
G01 X4.0825 Y44.0467
G01 X4.3145 Y43.9822
G01 X4.5141 Y43.8474
G01 X4.6607 Y43.6563
G01 X4.7391 Y43.4286
G01 X4.7290 Y43.1250
G01 X4.5993 Y42.8504
G01 X4.3713 Y42.6497
G01 X4.0825 Y42.5558
M63 P0 (laser off)

G00 X65.3196 Y14.2596
M62 P0 (laser on)
G01 X65.0153 Y14.2731
G01 X64.7416 Y14.4064
G01 X64.5434 Y14.6376
G01 X64.4534 Y14.9286
G01 X64.4984 Y15.2650
G01 X64.6871 Y15.5472
G01 X64.9809 Y15.7173
G01 X65.3196 Y15.7404
G01 X65.5834 Y15.6446
G01 X65.7936 Y15.4584
G01 X65.9206 Y15.2081
G01 X65.9466 Y14.9286
G01 X65.8835 Y14.6913
G01 X65.7472 Y14.4871
G01 X65.5523 Y14.3379
G01 X65.3196 Y14.2596
M63 P0 (laser off)

G00 X39.4639 Y58.1690
M62 P0 (laser on)
G01 X39.4521 Y58.3571
G01 X39.4639 Y58.4595
G01 X39.6782 Y58.8400
G01 X40.0668 Y59.0394
G01 X40.5038 Y58.9870
G01 X40.8247 Y58.6856
G01 X40.9479 Y58.3571
G01 X40.9230 Y58.1018
G01 X40.8247 Y57.8648
G01 X40.4769 Y57.6043
G01 X40.0439 Y57.5677
G01 X39.6615 Y57.7792
G01 X39.4639 Y58.1690
M63 P0 (laser off)

G00 X-35.3814 Y14.5551
M62 P0 (laser on)
G01 X-35.4984 Y14.7266
G01 X-35.5466 Y14.9286
G01 X-35.5182 Y15.2160
G01 X-35.3814 Y15.4704
G01 X-34.9852 Y15.7268
G01 X-34.5143 Y15.6935
G01 X-34.1573 Y15.3866
G01 X-34.0488 Y14.9286
G01 X-34.2202 Y14.5242
G01 X-34.5860 Y14.2811
G01 X-35.0293 Y14.2859
G01 X-35.3814 Y14.5551
M63 P0 (laser off)

G00 X-24.4948 Y-64.8404
M62 P0 (laser on)
G01 X-25.0183 Y-65.0511
G01 X-25.5363 Y-64.8271
G01 X-25.7500 Y-64.3092
G01 X-25.5501 Y-63.7857
G01 X-25.3124 Y-63.6195
G01 X-25.0304 Y-63.5519
G01 X-24.7434 Y-63.5965
G01 X-24.4948 Y-63.7469
G01 X-24.4553 Y-63.7857
G01 X-24.2995 Y-64.0332
G01 X-24.2503 Y-64.3215
G01 X-24.3155 Y-64.6079
G01 X-24.4948 Y-64.8404
M63 P0 (laser off)

G00 X24.4948 Y-64.8404
M62 P0 (laser on)
G01 X24.3155 Y-64.6078
G01 X24.2503 Y-64.3215
G01 X24.2996 Y-64.0332
G01 X24.4553 Y-63.7857
G01 X24.4948 Y-63.7469
G01 X24.7433 Y-63.5966
G01 X25.0303 Y-63.5519
G01 X25.3124 Y-63.6194
G01 X25.5501 Y-63.7857
G01 X25.7500 Y-64.3092
G01 X25.5362 Y-64.8271
G01 X25.0183 Y-65.0510
G01 X24.4948 Y-64.8404
M63 P0 (laser off)

G00 X-24.4948 Y63.7469
M62 P0 (laser on)
G01 X-24.7434 Y63.5966
G01 X-25.0304 Y63.5519
G01 X-25.3124 Y63.6194
G01 X-25.5501 Y63.7857
G01 X-25.7500 Y64.3092
G01 X-25.5363 Y64.8271
G01 X-25.0183 Y65.0511
G01 X-24.4948 Y64.8404
G01 X-24.3155 Y64.6078
G01 X-24.2503 Y64.3215
G01 X-24.2995 Y64.0332
G01 X-24.4553 Y63.7857
G01 X-24.4948 Y63.7469
M63 P0 (laser off)

G00 X24.4948 Y63.7469
M62 P0 (laser on)
G01 X24.4553 Y63.7857
G01 X24.2995 Y64.0332
G01 X24.2503 Y64.3215
G01 X24.3155 Y64.6078
G01 X24.4948 Y64.8404
G01 X25.0183 Y65.0511
G01 X25.5363 Y64.8271
G01 X25.7500 Y64.3092
G01 X25.5501 Y63.7857
G01 X25.3124 Y63.6194
G01 X25.0303 Y63.5519
G01 X24.7433 Y63.5966
G01 X24.4948 Y63.7469
M63 P0 (laser off)

G00 X-0.0000 Y-21.7500
M62 P0 (laser on)
G01 X-0.2218 Y-21.7143
G01 X-0.5760 Y-21.4803
G01 X-0.7445 Y-21.0907
G01 X-0.6749 Y-20.6729
G01 X-0.3926 Y-20.3571
G01 X-0.0000 Y-20.2500
G01 X0.3926 Y-20.3571
G01 X0.6749 Y-20.6729
G01 X0.7445 Y-21.0907
G01 X0.5760 Y-21.4803
G01 X0.2218 Y-21.7143
G01 X-0.0000 Y-21.7500
M63 P0 (laser off)

G00 X-0.0000 Y20.2500
M62 P0 (laser on)
G01 X-0.3926 Y20.3571
G01 X-0.6749 Y20.6729
G01 X-0.7445 Y21.0907
G01 X-0.5760 Y21.4803
G01 X-0.2218 Y21.7143
G01 X-0.0000 Y21.7500
G01 X0.2218 Y21.7143
G01 X0.5760 Y21.4803
G01 X0.7445 Y21.0907
G01 X0.6749 Y20.6729
G01 X0.3925 Y20.3571
G01 X-0.0000 Y20.2500
M63 P0 (laser off)

G00 X28.5773 Y-0.6158
M62 P0 (laser on)
G01 X28.3362 Y-0.3491
G01 X28.2500 Y-0.0000
G01 X28.3362 Y0.3491
G01 X28.5773 Y0.6158
G01 X28.9574 Y0.7488
G01 X29.3507 Y0.6629
G01 X29.6426 Y0.3867
G01 X29.7519 Y-0.0000
G01 X29.6426 Y-0.3867
G01 X29.3507 Y-0.6629
G01 X28.9574 Y-0.7488
G01 X28.5773 Y-0.6158
M63 P0 (laser off)

G00 X-20.4124 Y-0.4554
M62 P0 (laser on)
G01 X-20.7873 Y-0.7192
G01 X-21.2456 Y-0.7086
G01 X-21.6112 Y-0.4346
G01 X-21.7519 Y-0.0000
G01 X-21.6112 Y0.4346
G01 X-21.2457 Y0.7086
G01 X-20.7873 Y0.7192
G01 X-20.4124 Y0.4553
G01 X-20.2902 Y0.2423
G01 X-20.2500 Y-0.0000
G01 X-20.2902 Y-0.2423
G01 X-20.4124 Y-0.4554
M63 P0 (laser off)

G00 X-70.7629 Y-0.7115
M62 P0 (laser on)
G01 X-71.1151 Y-0.7411
G01 X-71.4418 Y-0.6061
G01 X-71.6694 Y-0.3382
G01 X-71.7652 Y-0.0000
G01 X-71.6694 Y0.3382
G01 X-71.4418 Y0.6061
G01 X-71.1151 Y0.7411
G01 X-70.7629 Y0.7115
G01 X-70.5558 Y0.6043
G01 X-70.3916 Y0.4386
G01 X-70.2863 Y0.2304
G01 X-70.2500 Y-0.0000
G01 X-70.2863 Y-0.2304
G01 X-70.3916 Y-0.4386
G01 X-70.5558 Y-0.6043
G01 X-70.7629 Y-0.7115
M63 P0 (laser off)

G00 X-0.0000 Y-76.5000
M62 P0 (laser on)
G01 X-0.6124 Y-76.3693
G01 X-1.1180 Y-76.0000
G01 X-1.3608 Y-75.6024
G01 X-1.4943 Y-75.1312
G01 X-1.4569 Y-74.6429
G01 X-1.3608 Y-74.4066
G01 X-1.1448 Y-74.0308
G01 X-0.8199 Y-73.7439
G01 X-0.4277 Y-73.5623
G01 X-0.0000 Y-73.5000
G01 X0.4277 Y-73.5623
G01 X0.8199 Y-73.7439
G01 X1.1448 Y-74.0308
G01 X1.3608 Y-74.4065
G01 X1.4569 Y-74.6429
G01 X1.4943 Y-75.1312
G01 X1.3608 Y-75.6024
G01 X1.1180 Y-76.0000
G01 X0.6124 Y-76.3693
G01 X-0.0000 Y-76.5000
M63 P0 (laser off)

G00 X-93.8969 Y-10.0000
M62 P0 (laser on)
G01 X-94.6680 Y-10.0058
G01 X-95.0718 Y-9.8828
G01 X-95.2500 Y-9.5000
G01 X-95.2500 Y9.5000
G01 X-95.0719 Y9.8828
G01 X-94.6680 Y10.0058
G01 X-93.8969 Y10.0000
G01 X-91.1753 Y10.0000
G01 X-90.5904 Y9.9778
G01 X-90.3447 Y9.7931
G01 X-90.2523 Y9.5000
G01 X-90.2500 Y8.1429
G01 X-90.2500 Y-8.1429
G01 X-90.2523 Y-9.5000
G01 X-90.3447 Y-9.7931
G01 X-90.5904 Y-9.9778
G01 X-91.1753 Y-10.0000
G01 X-93.8969 Y-10.0000
M63 P0 (laser off)

G00 X91.1753 Y-10.0000
M62 P0 (laser on)
G01 X90.5904 Y-9.9778
G01 X90.3447 Y-9.7931
G01 X90.2523 Y-9.5000
G01 X90.2500 Y-8.1429
G01 X90.2500 Y8.1429
G01 X90.2523 Y9.5000
G01 X90.3447 Y9.7931
G01 X90.5903 Y9.9778
G01 X91.1753 Y10.0000
G01 X93.8969 Y10.0000
G01 X94.6680 Y10.0058
G01 X95.0719 Y9.8828
G01 X95.2500 Y9.5000
G01 X95.2500 Y-9.5000
G01 X95.0718 Y-9.8828
G01 X94.6680 Y-10.0058
G01 X93.8969 Y-10.0000
G01 X91.1753 Y-10.0000
M63 P0 (laser off)

G00 X-8.7727 Y-89.5714
M62 P0 (laser on)
G01 X-8.1650 Y-89.6289
G01 X-6.8041 Y-89.7424
G01 X-5.4433 Y-89.8352
G01 X-4.0825 Y-89.9074
G01 X-2.7217 Y-89.9588
G01 X-1.3608 Y-89.9897
G01 X-0.0000 Y-90.0000
G01 X1.3608 Y-89.9897
G01 X2.7216 Y-89.9588
G01 X4.0825 Y-89.9074
G01 X5.4433 Y-89.8352
G01 X6.8041 Y-89.7424
G01 X8.1649 Y-89.6289
G01 X8.7727 Y-89.5714
G01 X9.5258 Y-89.4945
G01 X10.8866 Y-89.3391
G01 X12.2474 Y-89.1628
G01 X13.6082 Y-88.9653
G01 X14.9691 Y-88.7464
G01 X16.3299 Y-88.5061
G01 X17.6907 Y-88.2442
G01 X17.8393 Y-88.2143
G01 X19.0515 Y-87.9604
G01 X20.4124 Y-87.6546
G01 X21.7732 Y-87.3266
G01 X23.1340 Y-86.9760
G01 X23.5762 Y-86.8572
G01 X24.4948 Y-86.6026
G01 X25.8557 Y-86.2061
G01 X27.2165 Y-85.7862
G01 X28.1025 Y-85.5000
G01 X28.5773 Y-85.3425
G01 X29.9381 Y-84.8747
G01 X31.2990 Y-84.3823
G01 X31.9371 Y-84.1429
G01 X32.6598 Y-83.8650
G01 X34.0206 Y-83.3223
G01 X35.3062 Y-82.7857
G01 X35.3814 Y-82.7536
G01 X36.7423 Y-82.1584
G01 X38.1031 Y-81.5362
G01 X38.3326 Y-81.4286
G01 X39.4639 Y-80.8863
G01 X40.8247 Y-80.2081
G01 X41.0922 Y-80.0714
G01 X42.1856 Y-79.5008
G01 X43.5464 Y-78.7637
G01 X43.6355 Y-78.7143
G01 X44.9072 Y-77.9958
G01 X45.9986 Y-77.3572
G01 X46.2680 Y-77.1963
G01 X47.6289 Y-76.3642
G01 X48.2079 Y-76.0000
G01 X48.9897 Y-75.4984
G01 X50.2836 Y-74.6429
G01 X50.3505 Y-74.5978
G01 X51.7113 Y-73.6610
G01 X52.2418 Y-73.2857
G01 X53.0722 Y-72.6866
G01 X54.0951 Y-71.9286
G01 X54.4330 Y-71.6732
G01 X55.7938 Y-70.6191
G01 X55.8540 Y-70.5714
G01 X57.1546 Y-69.5223
G01 X57.5272 Y-69.2143
G01 X58.5155 Y-68.3809
G01 X59.1220 Y-67.8572
G01 X59.8763 Y-67.1925
G01 X60.6445 Y-66.5000
G01 X61.2371 Y-65.9547
G01 X62.1000 Y-65.1429
G01 X62.5979 Y-64.6645
G01 X63.4932 Y-63.7857
G01 X63.9588 Y-63.3189
G01 X64.8280 Y-62.4286
G01 X65.3196 Y-61.9141
G01 X66.1081 Y-61.0714
G01 X66.6804 Y-60.4460
G01 X67.3365 Y-59.7143
G01 X68.0412 Y-58.9100
G01 X68.5160 Y-58.3571
G01 X69.4021 Y-57.3006
G01 X69.6491 Y-57.0000
G01 X70.7381 Y-55.6429
G01 X70.7629 Y-55.6113
G01 X71.7848 Y-54.2857
G01 X72.1237 Y-53.8347
G01 X72.7913 Y-52.9286
G01 X73.4845 Y-51.9618
G01 X73.7590 Y-51.5714
G01 X74.6895 Y-50.2143
G01 X74.8454 Y-49.9817
G01 X75.5843 Y-48.8571
G01 X76.2062 Y-47.8813
G01 X76.4444 Y-47.5000
G01 X77.2712 Y-46.1429
G01 X77.5670 Y-45.6438
G01 X78.0656 Y-44.7857
G01 X78.8287 Y-43.4286
G01 X78.9278 Y-43.2481
G01 X79.5613 Y-42.0714
G01 X80.2642 Y-40.7143
G01 X80.2887 Y-40.6661
G01 X80.9383 Y-39.3571
G01 X81.5843 Y-38.0000
G01 X81.6495 Y-37.8598
G01 X82.2028 Y-36.6429
G01 X82.7944 Y-35.2857
G01 X83.0103 Y-34.7749
G01 X83.3598 Y-33.9286
G01 X83.8994 Y-32.5714
G01 X84.3711 Y-31.3291
G01 X84.4137 Y-31.2143
G01 X84.9054 Y-29.8571
G01 X85.2207 Y-29.1591
G01 X85.6111 Y-28.5000
G01 X85.7320 Y-28.3235
G01 X86.7495 Y-27.1429
G01 X87.0928 Y-26.8314
G01 X88.4536 Y-25.8830
G01 X88.6347 Y-25.7857
G01 X89.8144 Y-25.2948
G01 X91.1753 Y-25.0206
G01 X92.5361 Y-25.0000
G01 X102.0619 Y-24.9994
G01 X102.7636 Y-24.9014
G01 X103.4227 Y-24.6412
G01 X103.7612 Y-24.4286
G01 X104.3649 Y-23.8460
G01 X104.7835 Y-23.1189
G01 X104.8022 Y-23.0714
G01 X104.9730 Y-22.4034
G01 X105.0000 Y-21.7143
G01 X105.0000 Y21.7143
G01 X104.9730 Y22.4033
G01 X104.8021 Y23.0714
G01 X104.7835 Y23.1189
G01 X104.3649 Y23.8459
G01 X103.7613 Y24.4286
G01 X103.4227 Y24.6412
G01 X102.7636 Y24.9014
G01 X102.0619 Y24.9994
G01 X100.7010 Y25.0000
G01 X92.5361 Y25.0000
G01 X91.1753 Y25.0207
G01 X89.8144 Y25.2948
G01 X88.6347 Y25.7857
G01 X88.4536 Y25.8830
G01 X87.0928 Y26.8314
G01 X86.7495 Y27.1429
G01 X85.7320 Y28.3235
G01 X85.6111 Y28.5000
G01 X85.2207 Y29.1591
G01 X84.9054 Y29.8571
G01 X84.4137 Y31.2143
G01 X84.3711 Y31.3291
G01 X83.8994 Y32.5714
G01 X83.3598 Y33.9286
G01 X83.0103 Y34.7749
G01 X82.7944 Y35.2857
G01 X82.2028 Y36.6429
G01 X81.6495 Y37.8598
G01 X81.5843 Y38.0000
G01 X80.9384 Y39.3571
G01 X80.2887 Y40.6661
G01 X80.2642 Y40.7143
G01 X79.5613 Y42.0714
G01 X78.9278 Y43.2481
G01 X78.8287 Y43.4286
G01 X78.0656 Y44.7857
G01 X77.5670 Y45.6438
G01 X77.2712 Y46.1429
G01 X76.4444 Y47.5000
G01 X76.2062 Y47.8813
G01 X75.5843 Y48.8571
G01 X74.8454 Y49.9817
G01 X74.6895 Y50.2143
G01 X73.7590 Y51.5714
G01 X73.4845 Y51.9618
G01 X72.7913 Y52.9286
G01 X72.1237 Y53.8347
G01 X71.7848 Y54.2857
G01 X70.7629 Y55.6113
G01 X70.7381 Y55.6429
G01 X69.6491 Y57.0000
G01 X69.4021 Y57.3006
G01 X68.5160 Y58.3571
G01 X68.0412 Y58.9100
G01 X67.3365 Y59.7143
G01 X66.6804 Y60.4460
G01 X66.1081 Y61.0714
G01 X65.3196 Y61.9141
G01 X64.8280 Y62.4286
G01 X63.9588 Y63.3189
G01 X63.4932 Y63.7857
G01 X62.5979 Y64.6645
G01 X62.1000 Y65.1429
G01 X61.2371 Y65.9547
G01 X60.6445 Y66.5000
G01 X59.8763 Y67.1925
G01 X59.1220 Y67.8571
G01 X58.5155 Y68.3809
G01 X57.5272 Y69.2143
G01 X57.1546 Y69.5223
G01 X55.8541 Y70.5714
G01 X55.7938 Y70.6191
G01 X54.4330 Y71.6732
G01 X54.0951 Y71.9286
G01 X53.0722 Y72.6866
G01 X52.2418 Y73.2857
G01 X51.7113 Y73.6610
G01 X50.3505 Y74.5978
G01 X50.2836 Y74.6429
G01 X48.9897 Y75.4984
G01 X48.2079 Y76.0000
G01 X47.6289 Y76.3642
G01 X46.2680 Y77.1963
G01 X45.9986 Y77.3571
G01 X44.9072 Y77.9958
G01 X43.6356 Y78.7143
G01 X43.5464 Y78.7637
G01 X42.1856 Y79.5008
G01 X41.0922 Y80.0714
G01 X40.8247 Y80.2081
G01 X39.4639 Y80.8863
G01 X38.3326 Y81.4286
G01 X38.1031 Y81.5362
G01 X36.7423 Y82.1584
G01 X35.3814 Y82.7536
G01 X35.3062 Y82.7857
G01 X34.0206 Y83.3223
G01 X32.6598 Y83.8650
G01 X31.9371 Y84.1429
G01 X31.2990 Y84.3823
G01 X29.9381 Y84.8747
G01 X28.5773 Y85.3425
G01 X28.1025 Y85.5000
G01 X27.2165 Y85.7862
G01 X25.8557 Y86.2061
G01 X24.4948 Y86.6026
G01 X23.5762 Y86.8571
G01 X23.1340 Y86.9760
G01 X21.7732 Y87.3266
G01 X20.4124 Y87.6546
G01 X19.0515 Y87.9604
G01 X17.8393 Y88.2143
G01 X17.6907 Y88.2442
G01 X16.3299 Y88.5061
G01 X14.9691 Y88.7464
G01 X13.6082 Y88.9653
G01 X12.2474 Y89.1628
G01 X10.8866 Y89.3391
G01 X9.5258 Y89.4945
G01 X8.7727 Y89.5714
G01 X8.1649 Y89.6289
G01 X6.8041 Y89.7424
G01 X5.4433 Y89.8352
G01 X4.0825 Y89.9074
G01 X2.7216 Y89.9588
G01 X1.3608 Y89.9897
G01 X-0.0000 Y90.0000
G01 X-1.3608 Y89.9897
G01 X-2.7217 Y89.9588
G01 X-4.0825 Y89.9074
G01 X-5.4433 Y89.8352
G01 X-6.8041 Y89.7424
G01 X-8.1650 Y89.6289
G01 X-8.7727 Y89.5714
G01 X-9.5258 Y89.4945
G01 X-10.8866 Y89.3391
G01 X-12.2474 Y89.1628
G01 X-13.6083 Y88.9653
G01 X-14.9691 Y88.7464
G01 X-16.3299 Y88.5061
G01 X-17.6907 Y88.2442
G01 X-17.8393 Y88.2143
G01 X-19.0516 Y87.9604
G01 X-20.4124 Y87.6546
G01 X-21.7732 Y87.3266
G01 X-23.1340 Y86.9760
G01 X-23.5762 Y86.8571
G01 X-24.4948 Y86.6026
G01 X-25.8557 Y86.2061
G01 X-27.2165 Y85.7861
G01 X-28.1025 Y85.5000
G01 X-28.5773 Y85.3425
G01 X-29.9381 Y84.8747
G01 X-31.2990 Y84.3823
G01 X-31.9371 Y84.1429
G01 X-32.6598 Y83.8650
G01 X-34.0206 Y83.3223
G01 X-35.3062 Y82.7857
G01 X-35.3814 Y82.7536
G01 X-36.7423 Y82.1584
G01 X-38.1031 Y81.5362
G01 X-38.3326 Y81.4286
G01 X-39.4639 Y80.8863
G01 X-40.8247 Y80.2081
G01 X-41.0922 Y80.0714
G01 X-42.1856 Y79.5008
G01 X-43.5464 Y78.7636
G01 X-43.6356 Y78.7143
G01 X-44.9072 Y77.9958
G01 X-45.9986 Y77.3571
G01 X-46.2680 Y77.1963
G01 X-47.6289 Y76.3642
G01 X-48.2079 Y76.0000
G01 X-48.9897 Y75.4984
G01 X-50.2836 Y74.6429
G01 X-50.3505 Y74.5978
G01 X-51.7113 Y73.6610
G01 X-52.2418 Y73.2857
G01 X-53.0722 Y72.6866
G01 X-54.0951 Y71.9286
G01 X-54.4330 Y71.6732
G01 X-55.7938 Y70.6191
G01 X-55.8541 Y70.5714
G01 X-57.1546 Y69.5223
G01 X-57.5272 Y69.2143
G01 X-58.5155 Y68.3808
G01 X-59.1220 Y67.8571
G01 X-59.8763 Y67.1925
G01 X-60.6445 Y66.5000
G01 X-61.2371 Y65.9547
G01 X-62.1000 Y65.1429
G01 X-62.5979 Y64.6645
G01 X-63.4932 Y63.7857
G01 X-63.9588 Y63.3188
G01 X-64.8280 Y62.4286
G01 X-65.3196 Y61.9141
G01 X-66.1081 Y61.0714
G01 X-66.6804 Y60.4460
G01 X-67.3365 Y59.7143
G01 X-68.0412 Y58.9100
G01 X-68.5160 Y58.3571
G01 X-69.4021 Y57.3006
G01 X-69.6491 Y57.0000
G01 X-70.7381 Y55.6429
G01 X-70.7629 Y55.6113
G01 X-71.7848 Y54.2857
G01 X-72.1237 Y53.8347
G01 X-72.7913 Y52.9286
G01 X-73.4845 Y51.9617
G01 X-73.7590 Y51.5714
G01 X-74.6895 Y50.2143
G01 X-74.8454 Y49.9817
G01 X-75.5843 Y48.8571
G01 X-76.2062 Y47.8813
G01 X-76.4444 Y47.5000
G01 X-77.2712 Y46.1429
G01 X-77.5670 Y45.6438
G01 X-78.0656 Y44.7857
G01 X-78.8287 Y43.4286
G01 X-78.9278 Y43.2481
G01 X-79.5613 Y42.0714
G01 X-80.2642 Y40.7143
G01 X-80.2887 Y40.6661
G01 X-80.9384 Y39.3571
G01 X-81.5843 Y38.0000
G01 X-81.6495 Y37.8598
G01 X-82.2028 Y36.6429
G01 X-82.7944 Y35.2857
G01 X-83.0103 Y34.7748
G01 X-83.3598 Y33.9286
G01 X-83.8994 Y32.5714
G01 X-84.3711 Y31.3291
G01 X-84.4137 Y31.2143
G01 X-84.9054 Y29.8571
G01 X-85.2207 Y29.1591
G01 X-85.6111 Y28.5000
G01 X-85.7320 Y28.3235
G01 X-86.7495 Y27.1429
G01 X-87.0928 Y26.8314
G01 X-88.4536 Y25.8830
G01 X-88.6347 Y25.7857
G01 X-89.8144 Y25.2948
G01 X-91.1753 Y25.0206
G01 X-92.5361 Y25.0000
G01 X-102.0619 Y24.9994
G01 X-102.7636 Y24.9014
G01 X-103.4227 Y24.6412
G01 X-103.7613 Y24.4286
G01 X-104.3649 Y23.8459
G01 X-104.7835 Y23.1189
G01 X-104.8022 Y23.0714
G01 X-104.9730 Y22.4033
G01 X-105.0000 Y21.7143
G01 X-105.0000 Y-21.7143
G01 X-104.9730 Y-22.4034
G01 X-104.8022 Y-23.0714
G01 X-104.7835 Y-23.1189
G01 X-104.3649 Y-23.8459
G01 X-103.7612 Y-24.4286
G01 X-103.4227 Y-24.6412
G01 X-102.7636 Y-24.9014
G01 X-102.0619 Y-24.9994
G01 X-100.7010 Y-25.0000
G01 X-92.5361 Y-25.0000
G01 X-91.1753 Y-25.0206
G01 X-89.8144 Y-25.2948
G01 X-88.6347 Y-25.7857
G01 X-88.4536 Y-25.8830
G01 X-87.0928 Y-26.8314
G01 X-86.7495 Y-27.1429
G01 X-85.7320 Y-28.3235
G01 X-85.6111 Y-28.5000
G01 X-85.2207 Y-29.1591
G01 X-84.9054 Y-29.8571
G01 X-84.4137 Y-31.2143
G01 X-84.3711 Y-31.3291
G01 X-83.8994 Y-32.5714
G01 X-83.3598 Y-33.9286
G01 X-83.0103 Y-34.7748
G01 X-82.7944 Y-35.2857
G01 X-82.2028 Y-36.6429
G01 X-81.6495 Y-37.8598
G01 X-81.5843 Y-38.0000
G01 X-80.9383 Y-39.3571
G01 X-80.2887 Y-40.6661
G01 X-80.2642 Y-40.7143
G01 X-79.5613 Y-42.0714
G01 X-78.9278 Y-43.2481
G01 X-78.8287 Y-43.4286
G01 X-78.0656 Y-44.7857
G01 X-77.5670 Y-45.6438
G01 X-77.2712 Y-46.1429
G01 X-76.4444 Y-47.5000
G01 X-76.2062 Y-47.8813
G01 X-75.5843 Y-48.8571
G01 X-74.8454 Y-49.9817
G01 X-74.6895 Y-50.2143
G01 X-73.7590 Y-51.5714
G01 X-73.4845 Y-51.9617
G01 X-72.7913 Y-52.9286
G01 X-72.1237 Y-53.8347
G01 X-71.7848 Y-54.2857
G01 X-70.7629 Y-55.6113
G01 X-70.7381 Y-55.6429
G01 X-69.6491 Y-57.0000
G01 X-69.4021 Y-57.3006
G01 X-68.5160 Y-58.3571
G01 X-68.0412 Y-58.9100
G01 X-67.3365 Y-59.7143
G01 X-66.6804 Y-60.4460
G01 X-66.1081 Y-61.0714
G01 X-65.3196 Y-61.9141
G01 X-64.8280 Y-62.4286
G01 X-63.9588 Y-63.3188
G01 X-63.4932 Y-63.7857
G01 X-62.5979 Y-64.6645
G01 X-62.1000 Y-65.1429
G01 X-61.2371 Y-65.9547
G01 X-60.6445 Y-66.5000
G01 X-59.8763 Y-67.1925
G01 X-59.1220 Y-67.8572
G01 X-58.5155 Y-68.3808
G01 X-57.5272 Y-69.2143
G01 X-57.1546 Y-69.5223
G01 X-55.8540 Y-70.5714
G01 X-55.7938 Y-70.6191
G01 X-54.4330 Y-71.6732
G01 X-54.0951 Y-71.9286
G01 X-53.0722 Y-72.6866
G01 X-52.2418 Y-73.2857
G01 X-51.7113 Y-73.6610
G01 X-50.3505 Y-74.5978
G01 X-50.2836 Y-74.6429
G01 X-48.9897 Y-75.4984
G01 X-48.2079 Y-76.0000
G01 X-47.6289 Y-76.3642
G01 X-46.2680 Y-77.1963
G01 X-45.9986 Y-77.3572
G01 X-44.9072 Y-77.9958
G01 X-43.6355 Y-78.7143
G01 X-43.5464 Y-78.7636
G01 X-42.1856 Y-79.5008
G01 X-41.0922 Y-80.0714
G01 X-40.8247 Y-80.2081
G01 X-39.4639 Y-80.8863
G01 X-38.3326 Y-81.4286
G01 X-38.1031 Y-81.5362
G01 X-36.7423 Y-82.1584
G01 X-35.3814 Y-82.7536
G01 X-35.3062 Y-82.7857
G01 X-34.0206 Y-83.3223
G01 X-32.6598 Y-83.8650
G01 X-31.9371 Y-84.1429
G01 X-31.2990 Y-84.3823
G01 X-29.9381 Y-84.8747
G01 X-28.5773 Y-85.3425
G01 X-28.1025 Y-85.5000
G01 X-27.2165 Y-85.7861
G01 X-25.8557 Y-86.2061
G01 X-24.4948 Y-86.6026
G01 X-23.5762 Y-86.8572
G01 X-23.1340 Y-86.9760
G01 X-21.7732 Y-87.3266
G01 X-20.4124 Y-87.6546
G01 X-19.0516 Y-87.9604
G01 X-17.8393 Y-88.2143
G01 X-17.6907 Y-88.2442
G01 X-16.3299 Y-88.5061
G01 X-14.9691 Y-88.7464
G01 X-13.6083 Y-88.9653
G01 X-12.2474 Y-89.1628
G01 X-10.8866 Y-89.3391
G01 X-9.5258 Y-89.4945
G01 X-8.7727 Y-89.5714
M63 P0 (laser off)

M5 (disable laser)
G00 X0.0 Y0.0 (move to 0)
M2 (end)