(generated by ImplicitCAD, based of hacklab wiki example)
M63 P0 (laser off)
G0 Z0.002 (laser off)
G21 (units=mm)
F200 (set feedrate)
M3 S1 (enable laser)

G00 X61.5377 Y31.3667
M62 P0 (laser on)
G01 X61.4176 Y31.5610
G01 X61.2619 Y32.0617
G01 X61.2880 Y32.5854
G01 X61.3850 Y32.8720
G01 X61.5377 Y33.1333
G01 X61.8028 Y33.4131
G01 X62.1343 Y33.6098
G01 X62.5628 Y33.7383
G01 X62.9872 Y33.7311
G01 X63.3939 Y33.6098
G01 X63.5879 Y33.4941
G01 X63.8059 Y33.3155
G01 X63.9865 Y33.0992
G01 X64.1235 Y32.8529
G01 X64.2120 Y32.5854
G01 X64.2381 Y32.0617
G01 X64.0824 Y31.5610
G01 X63.8701 Y31.2523
G01 X63.5879 Y31.0059
G01 X63.0975 Y30.7908
G01 X62.5628 Y30.7617
G01 X62.2652 Y30.8305
G01 X61.9877 Y30.9582
G01 X61.7418 Y31.1394
G01 X61.5377 Y31.3667
M63 P0 (laser off)

G00 X62.5628 Y66.2617
M62 P0 (laser on)
G01 X62.1343 Y66.3902
G01 X61.8028 Y66.5869
G01 X61.5377 Y66.8667
G01 X61.3850 Y67.1280
G01 X61.2880 Y67.4146
G01 X61.2619 Y67.9383
G01 X61.4176 Y68.4390
G01 X61.5377 Y68.6333
G01 X61.7418 Y68.8606
G01 X61.9877 Y69.0418
G01 X62.2652 Y69.1695
G01 X62.5628 Y69.2383
G01 X63.0975 Y69.2092
G01 X63.5879 Y68.9941
G01 X63.8701 Y68.7477
G01 X64.0824 Y68.4390
G01 X64.2381 Y67.9383
G01 X64.2120 Y67.4146
G01 X64.1235 Y67.1471
G01 X63.9865 Y66.9008
G01 X63.8059 Y66.6846
G01 X63.5879 Y66.5059
G01 X63.3939 Y66.3902
G01 X62.9872 Y66.2689
G01 X62.5628 Y66.2617
M63 P0 (laser off)

G00 X36.9347 Y30.7835
M62 P0 (laser on)
G01 X36.6217 Y30.8880
G01 X36.3390 Y31.0583
G01 X36.1005 Y31.2863
G01 X35.9176 Y31.5610
G01 X35.9095 Y31.5768
G01 X35.7608 Y32.0705
G01 X35.7880 Y32.5854
G01 X35.9095 Y32.9143
G01 X36.2049 Y33.3260
G01 X36.6246 Y33.6098
G01 X36.9347 Y33.7165
G01 X37.4167 Y33.7407
G01 X37.8812 Y33.6098
G01 X37.9598 Y33.5714
G01 X38.2232 Y33.3914
G01 X38.4426 Y33.1598
G01 X38.6080 Y32.8870
G01 X38.7120 Y32.5854
G01 X38.7381 Y32.0617
G01 X38.5824 Y31.5610
G01 X38.3189 Y31.1977
G01 X37.9598 Y30.9286
G01 X37.4601 Y30.7648
G01 X36.9347 Y30.7835
M63 P0 (laser off)

G00 X36.9347 Y66.2835
M62 P0 (laser on)
G01 X36.6246 Y66.3902
G01 X36.2049 Y66.6740
G01 X35.9095 Y67.0857
G01 X35.7880 Y67.4146
G01 X35.7608 Y67.9295
G01 X35.9095 Y68.4232
G01 X35.9176 Y68.4390
G01 X36.1005 Y68.7137
G01 X36.3391 Y68.9417
G01 X36.6217 Y69.1121
G01 X36.9347 Y69.2165
G01 X37.4601 Y69.2352
G01 X37.9598 Y69.0714
G01 X38.3189 Y68.8023
G01 X38.5824 Y68.4390
G01 X38.7381 Y67.9383
G01 X38.7120 Y67.4146
G01 X38.6080 Y67.1130
G01 X38.4426 Y66.8402
G01 X38.2232 Y66.6086
G01 X37.9598 Y66.4286
G01 X37.8812 Y66.3902
G01 X37.4167 Y66.2593
G01 X36.9347 Y66.2835
M63 P0 (laser off)

G00 X42.0603 Y96.0325
M62 P0 (laser on)
G01 X41.6293 Y96.0049
G01 X41.2075 Y96.0976
G01 X41.0352 Y96.1813
G01 X40.7819 Y96.3542
G01 X40.5691 Y96.5751
G01 X40.4057 Y96.8346
G01 X40.2984 Y97.1220
G01 X40.2568 Y97.6428
G01 X40.3964 Y98.1463
G01 X40.6625 Y98.5331
G01 X41.0352 Y98.8187
G01 X41.5345 Y98.9844
G01 X42.0603 Y98.9676
G01 X42.3784 Y98.8620
G01 X42.6651 Y98.6885
G01 X42.9063 Y98.4555
G01 X43.0854 Y98.1720
G01 X43.1036 Y98.1463
G01 X43.2432 Y97.6428
G01 X43.2016 Y97.1220
G01 X43.0854 Y96.8108
G01 X42.7554 Y96.3868
G01 X42.3026 Y96.0976
G01 X42.0603 Y96.0325
M63 P0 (laser off)

G00 X58.4623 Y96.0151
M62 P0 (laser on)
G01 X58.0786 Y96.0098
G01 X57.7050 Y96.0976
G01 X57.4372 Y96.2393
G01 X57.2182 Y96.4112
G01 X57.0348 Y96.6206
G01 X56.8933 Y96.8602
G01 X56.7984 Y97.1220
G01 X56.7568 Y97.6428
G01 X56.8964 Y98.1463
G01 X57.1241 Y98.4911
G01 X57.4372 Y98.7607
G01 X57.9295 Y98.9654
G01 X58.4623 Y98.9849
G01 X58.7630 Y98.9095
G01 X59.0418 Y98.7740
G01 X59.2868 Y98.5840
G01 X59.4874 Y98.3477
G01 X59.6036 Y98.1463
G01 X59.7432 Y97.6428
G01 X59.7016 Y97.1220
G01 X59.4874 Y96.6523
G01 X59.1850 Y96.3271
G01 X58.8049 Y96.0976
G01 X58.4623 Y96.0151
M63 P0 (laser off)

G00 X41.0352 Y1.1813
M62 P0 (laser on)
G01 X40.6625 Y1.4669
G01 X40.3964 Y1.8537
G01 X40.2568 Y2.3572
G01 X40.2984 Y2.8780
G01 X40.4057 Y3.1654
G01 X40.5691 Y3.4249
G01 X40.7819 Y3.6458
G01 X41.0352 Y3.8187
G01 X41.2075 Y3.9024
G01 X41.6293 Y3.9951
G01 X42.0603 Y3.9676
G01 X42.3026 Y3.9024
G01 X42.7554 Y3.6132
G01 X43.0854 Y3.1892
G01 X43.2016 Y2.8780
G01 X43.2432 Y2.3572
G01 X43.1036 Y1.8537
G01 X43.0854 Y1.8280
G01 X42.9063 Y1.5445
G01 X42.6651 Y1.3114
G01 X42.3784 Y1.1380
G01 X42.0603 Y1.0324
G01 X41.5345 Y1.0156
G01 X41.0352 Y1.1813
M63 P0 (laser off)

G00 X57.4372 Y1.2393
M62 P0 (laser on)
G01 X57.1241 Y1.5089
G01 X56.8964 Y1.8537
G01 X56.7568 Y2.3572
G01 X56.7984 Y2.8780
G01 X56.8933 Y3.1397
G01 X57.0348 Y3.3794
G01 X57.2182 Y3.5888
G01 X57.4372 Y3.7607
G01 X57.7050 Y3.9024
G01 X58.0786 Y3.9902
G01 X58.4623 Y3.9849
G01 X58.8049 Y3.9024
G01 X59.1850 Y3.6729
G01 X59.4874 Y3.3477
G01 X59.7016 Y2.8780
G01 X59.7432 Y2.3572
G01 X59.6036 Y1.8537
G01 X59.4874 Y1.6523
G01 X59.2868 Y1.4160
G01 X59.0418 Y1.2260
G01 X58.7630 Y1.0905
G01 X58.4623 Y1.0151
G01 X57.9295 Y1.0346
G01 X57.4372 Y1.2393
M63 P0 (laser off)

G00 X43.0854 Y24.0584
M62 P0 (laser on)
G01 X42.7690 Y24.1901
G01 X42.4908 Y24.3902
G01 X42.2243 Y24.7110
G01 X42.0603 Y25.0945
G01 X42.0024 Y25.4146
G01 X42.0603 Y25.9325
G01 X42.1723 Y26.1980
G01 X42.3303 Y26.4390
G01 X42.6690 Y26.7487
G01 X43.0854 Y26.9416
G01 X43.6043 Y26.9964
G01 X44.1106 Y26.8701
G01 X44.4159 Y26.6879
G01 X44.6697 Y26.4390
G01 X44.9286 Y25.9572
G01 X44.9976 Y25.4146
G01 X44.9530 Y25.1276
G01 X44.8540 Y24.8545
G01 X44.7042 Y24.6056
G01 X44.5092 Y24.3902
G01 X44.1106 Y24.1299
G01 X43.6043 Y24.0036
G01 X43.0854 Y24.0584
M63 P0 (laser off)

G00 X56.4121 Y24.0026
M62 P0 (laser on)
G01 X55.9182 Y24.1174
G01 X55.4908 Y24.3902
G01 X55.3869 Y24.4945
G01 X55.1160 Y24.9217
G01 X55.0024 Y25.4146
G01 X55.0714 Y25.9572
G01 X55.3303 Y26.4390
G01 X55.3869 Y26.5055
G01 X55.6021 Y26.7016
G01 X55.8511 Y26.8524
G01 X56.1245 Y26.9522
G01 X56.4121 Y26.9974
G01 X56.9549 Y26.9294
G01 X57.4372 Y26.6712
G01 X57.6697 Y26.4390
G01 X57.9286 Y25.9572
G01 X57.9976 Y25.4146
G01 X57.9530 Y25.1276
G01 X57.8540 Y24.8545
G01 X57.7042 Y24.6056
G01 X57.5092 Y24.3902
G01 X57.4372 Y24.3288
G01 X56.9549 Y24.0706
G01 X56.4121 Y24.0026
M63 P0 (laser off)

G00 X43.0854 Y73.0584
M62 P0 (laser on)
G01 X42.6690 Y73.2513
G01 X42.3303 Y73.5610
G01 X42.1723 Y73.8020
G01 X42.0603 Y74.0675
G01 X42.0024 Y74.5854
G01 X42.0603 Y74.9055
G01 X42.2243 Y75.2890
G01 X42.4908 Y75.6098
G01 X42.7690 Y75.8099
G01 X43.0854 Y75.9416
G01 X43.6043 Y75.9964
G01 X44.1106 Y75.8701
G01 X44.5092 Y75.6098
G01 X44.7042 Y75.3944
G01 X44.8540 Y75.1455
G01 X44.9530 Y74.8724
G01 X44.9976 Y74.5854
G01 X44.9286 Y74.0428
G01 X44.6697 Y73.5610
G01 X44.4159 Y73.3121
G01 X44.1106 Y73.1299
G01 X43.6043 Y73.0036
G01 X43.0854 Y73.0584
M63 P0 (laser off)

G00 X55.3869 Y73.4945
M62 P0 (laser on)
G01 X55.3303 Y73.5610
G01 X55.0714 Y74.0428
G01 X55.0024 Y74.5854
G01 X55.1160 Y75.0783
G01 X55.3869 Y75.5055
G01 X55.4908 Y75.6098
G01 X55.9182 Y75.8826
G01 X56.4121 Y75.9974
G01 X56.9549 Y75.9294
G01 X57.4372 Y75.6712
G01 X57.5092 Y75.6098
G01 X57.7042 Y75.3944
G01 X57.8540 Y75.1455
G01 X57.9530 Y74.8724
G01 X57.9976 Y74.5854
G01 X57.9286 Y74.0428
G01 X57.6697 Y73.5610
G01 X57.4372 Y73.3288
G01 X56.9549 Y73.0706
G01 X56.4121 Y73.0026
G01 X56.1245 Y73.0478
G01 X55.8511 Y73.1476
G01 X55.6021 Y73.2984
G01 X55.3869 Y73.4945
M63 P0 (laser off)

G00 X72.8141 Y67.6660
M62 P0 (laser on)
G01 X72.3919 Y67.9890
G01 X72.1089 Y68.4390
G01 X72.0009 Y68.9481
G01 X72.0734 Y69.4634
G01 X72.1905 Y69.7316
G01 X72.3576 Y69.9720
G01 X72.5681 Y70.1754
G01 X72.8141 Y70.3340
G01 X73.3153 Y70.4886
G01 X73.8392 Y70.4611
G01 X74.1610 Y70.3465
G01 X74.4485 Y70.1621
G01 X74.6867 Y69.9174
G01 X74.8643 Y69.6257
G01 X74.9266 Y69.4634
G01 X74.9991 Y68.9481
G01 X74.8912 Y68.4390
G01 X74.8643 Y68.3977
G01 X74.6959 Y68.0945
G01 X74.4559 Y67.8440
G01 X74.1653 Y67.6556
G01 X73.8392 Y67.5389
G01 X73.3153 Y67.5114
G01 X72.8141 Y67.6660
M63 P0 (laser off)

G00 X72.8141 Y29.6660
M62 P0 (laser on)
G01 X72.5681 Y29.8246
G01 X72.3576 Y30.0280
G01 X72.1905 Y30.2684
G01 X72.0734 Y30.5366
G01 X72.0009 Y31.0519
G01 X72.1089 Y31.5610
G01 X72.3919 Y32.0110
G01 X72.8141 Y32.3340
G01 X73.3153 Y32.4886
G01 X73.8392 Y32.4611
G01 X74.1653 Y32.3444
G01 X74.4559 Y32.1560
G01 X74.6959 Y31.9055
G01 X74.8643 Y31.6023
G01 X74.8912 Y31.5610
G01 X74.9991 Y31.0519
G01 X74.9266 Y30.5366
G01 X74.8643 Y30.3743
G01 X74.6867 Y30.0826
G01 X74.4485 Y29.8379
G01 X74.1610 Y29.6535
G01 X73.8392 Y29.5389
G01 X73.3153 Y29.5114
G01 X72.8141 Y29.6660
M63 P0 (laser off)

G00 X126.1206 Y67.5488
M62 P0 (laser on)
G01 X125.7958 Y67.6755
G01 X125.5091 Y67.8739
G01 X125.2759 Y68.1330
G01 X125.1089 Y68.4390
G01 X125.0955 Y68.4628
G01 X125.0005 Y68.9613
G01 X125.0734 Y69.4634
G01 X125.0955 Y69.5014
G01 X125.2508 Y69.8303
G01 X125.4873 Y70.1066
G01 X125.7830 Y70.3175
G01 X126.1206 Y70.4512
G01 X126.6418 Y70.4933
G01 X127.1457 Y70.3539
G01 X127.4053 Y70.1960
G01 X127.6278 Y69.9890
G01 X127.8040 Y69.7414
G01 X127.9266 Y69.4634
G01 X127.9991 Y68.9481
G01 X127.8912 Y68.4390
G01 X127.7637 Y68.1919
G01 X127.5929 Y67.9726
G01 X127.3845 Y67.7885
G01 X127.1457 Y67.6461
G01 X126.6418 Y67.5067
G01 X126.1206 Y67.5488
M63 P0 (laser off)

G00 X125.0955 Y30.4987
M62 P0 (laser on)
G01 X125.0734 Y30.5366
G01 X125.0005 Y31.0387
G01 X125.0955 Y31.5372
G01 X125.1089 Y31.5610
G01 X125.2759 Y31.8670
G01 X125.5091 Y32.1261
G01 X125.7958 Y32.3244
G01 X126.1206 Y32.4512
G01 X126.6418 Y32.4933
G01 X127.1457 Y32.3539
G01 X127.3845 Y32.2115
G01 X127.5929 Y32.0274
G01 X127.7637 Y31.8081
G01 X127.8912 Y31.5610
G01 X127.9991 Y31.0519
G01 X127.9266 Y30.5366
G01 X127.8040 Y30.2586
G01 X127.6278 Y30.0110
G01 X127.4053 Y29.8040
G01 X127.1457 Y29.6461
G01 X126.6418 Y29.5067
G01 X126.1206 Y29.5488
G01 X125.7830 Y29.6825
G01 X125.4873 Y29.8934
G01 X125.2508 Y30.1697
G01 X125.0955 Y30.4987
M63 P0 (laser off)

G00 X29.7588 Y21.3327
M62 P0 (laser on)
G01 X29.4356 Y21.4904
G01 X29.1591 Y21.7204
G01 X28.9454 Y22.0097
G01 X28.8067 Y22.3415
G01 X28.7541 Y22.8603
G01 X28.8823 Y23.3659
G01 X29.0350 Y23.6296
G01 X29.2378 Y23.8570
G01 X29.4825 Y24.0388
G01 X29.7588 Y24.1673
G01 X30.2727 Y24.2498
G01 X30.7839 Y24.1518
G01 X31.0466 Y24.0210
G01 X31.2788 Y23.8416
G01 X31.4717 Y23.6204
G01 X31.6177 Y23.3659
G01 X31.7459 Y22.8603
G01 X31.6933 Y22.3415
G01 X31.5601 Y22.0196
G01 X31.3563 Y21.7371
G01 X31.0929 Y21.5092
G01 X30.7839 Y21.3482
G01 X30.2727 Y21.2502
G01 X29.7588 Y21.3327
M63 P0 (laser off)

G00 X29.7588 Y3.8327
M62 P0 (laser on)
G01 X29.5885 Y3.9024
G01 X29.3061 Y4.0842
G01 X29.0704 Y4.3234
G01 X28.8938 Y4.6090
G01 X28.7852 Y4.9268
G01 X28.7636 Y5.4514
G01 X28.9240 Y5.9512
G01 X29.0781 Y6.1863
G01 X29.2734 Y6.3885
G01 X29.5030 Y6.5508
G01 X29.7588 Y6.6673
G01 X30.2727 Y6.7498
G01 X30.7839 Y6.6518
G01 X31.2437 Y6.3736
G01 X31.5760 Y5.9512
G01 X31.7364 Y5.4514
G01 X31.7148 Y4.9268
G01 X31.6075 Y4.6119
G01 X31.4334 Y4.3283
G01 X31.2015 Y4.0904
G01 X30.9274 Y3.9024
G01 X30.7839 Y3.8482
G01 X30.2727 Y3.7502
G01 X29.7588 Y3.8327
M63 P0 (laser off)

G00 X29.7588 Y75.8327
M62 P0 (laser on)
G01 X29.4825 Y75.9612
G01 X29.2378 Y76.1430
G01 X29.0350 Y76.3704
G01 X28.8823 Y76.6341
G01 X28.7541 Y77.1397
G01 X28.8067 Y77.6585
G01 X28.9454 Y77.9903
G01 X29.1591 Y78.2796
G01 X29.4356 Y78.5096
G01 X29.7588 Y78.6673
G01 X30.2727 Y78.7498
G01 X30.7839 Y78.6518
G01 X31.0929 Y78.4908
G01 X31.3563 Y78.2629
G01 X31.5601 Y77.9804
G01 X31.6933 Y77.6585
G01 X31.7459 Y77.1397
G01 X31.6177 Y76.6341
G01 X31.4717 Y76.3796
G01 X31.2788 Y76.1584
G01 X31.0466 Y75.9790
G01 X30.7839 Y75.8482
G01 X30.2727 Y75.7502
G01 X29.7588 Y75.8327
M63 P0 (laser off)

G00 X29.7588 Y93.3327
M62 P0 (laser on)
G01 X29.5030 Y93.4493
G01 X29.2734 Y93.6115
G01 X29.0781 Y93.8137
G01 X28.9240 Y94.0488
G01 X28.7636 Y94.5486
G01 X28.7852 Y95.0732
G01 X28.8938 Y95.3910
G01 X29.0704 Y95.6766
G01 X29.3061 Y95.9158
G01 X29.5885 Y96.0976
G01 X29.7588 Y96.1673
G01 X30.2727 Y96.2498
G01 X30.7839 Y96.1518
G01 X30.9274 Y96.0976
G01 X31.2015 Y95.9096
G01 X31.4334 Y95.6717
G01 X31.6075 Y95.3881
G01 X31.7148 Y95.0732
G01 X31.7364 Y94.5486
G01 X31.5760 Y94.0488
G01 X31.2437 Y93.6264
G01 X30.7839 Y93.3482
G01 X30.2727 Y93.2502
G01 X29.7588 Y93.3327
M63 P0 (laser off)

G00 X9.2563 Y75.8336
M62 P0 (laser on)
G01 X8.9808 Y75.9623
G01 X8.7368 Y76.1439
G01 X8.5346 Y76.3709
G01 X8.3823 Y76.6341
G01 X8.2541 Y77.1397
G01 X8.3067 Y77.6585
G01 X8.4451 Y77.9898
G01 X8.6582 Y78.2786
G01 X8.9339 Y78.5086
G01 X9.2563 Y78.6664
G01 X9.7701 Y78.7499
G01 X10.2814 Y78.6527
G01 X10.5912 Y78.4919
G01 X10.8554 Y78.2639
G01 X11.0598 Y77.9810
G01 X11.1933 Y77.6585
G01 X11.2459 Y77.1397
G01 X11.1177 Y76.6341
G01 X10.9713 Y76.3791
G01 X10.7778 Y76.1575
G01 X10.5449 Y75.9779
G01 X10.2814 Y75.8473
G01 X9.7701 Y75.7501
G01 X9.2563 Y75.8336
M63 P0 (laser off)

G00 X9.2563 Y93.3336
M62 P0 (laser on)
G01 X9.0012 Y93.4502
G01 X8.7724 Y93.6123
G01 X8.5777 Y93.8142
G01 X8.4240 Y94.0488
G01 X8.2636 Y94.5486
G01 X8.2852 Y95.0732
G01 X8.3938 Y95.3908
G01 X8.5702 Y95.6763
G01 X8.8057 Y95.9154
G01 X9.0875 Y96.0976
G01 X9.2563 Y96.1664
G01 X9.7701 Y96.2499
G01 X10.2814 Y96.1527
G01 X10.4265 Y96.0976
G01 X10.7010 Y95.9100
G01 X10.9332 Y95.6720
G01 X11.1074 Y95.3883
G01 X11.2148 Y95.0732
G01 X11.2364 Y94.5486
G01 X11.0760 Y94.0488
G01 X10.7427 Y93.6255
G01 X10.2814 Y93.3473
G01 X9.7701 Y93.2501
G01 X9.2563 Y93.3336
M63 P0 (laser off)

G00 X9.2563 Y21.3336
M62 P0 (laser on)
G01 X8.9339 Y21.4914
G01 X8.6582 Y21.7214
G01 X8.4451 Y22.0102
G01 X8.3067 Y22.3415
G01 X8.2541 Y22.8603
G01 X8.3823 Y23.3659
G01 X8.5346 Y23.6291
G01 X8.7368 Y23.8561
G01 X8.9808 Y24.0377
G01 X9.2563 Y24.1664
G01 X9.7701 Y24.2499
G01 X10.2814 Y24.1527
G01 X10.5449 Y24.0221
G01 X10.7779 Y23.8425
G01 X10.9713 Y23.6209
G01 X11.1177 Y23.3659
G01 X11.2459 Y22.8603
G01 X11.1933 Y22.3415
G01 X11.0598 Y22.0190
G01 X10.8554 Y21.7361
G01 X10.5912 Y21.5081
G01 X10.2814 Y21.3473
G01 X9.7701 Y21.2501
G01 X9.2563 Y21.3336
M63 P0 (laser off)

G00 X9.2563 Y3.8336
M62 P0 (laser on)
G01 X9.0875 Y3.9024
G01 X8.8057 Y4.0846
G01 X8.5702 Y4.3237
G01 X8.3938 Y4.6092
G01 X8.2852 Y4.9268
G01 X8.2636 Y5.4514
G01 X8.4240 Y5.9512
G01 X8.5777 Y6.1858
G01 X8.7724 Y6.3877
G01 X9.0012 Y6.5498
G01 X9.2563 Y6.6664
G01 X9.7701 Y6.7499
G01 X10.2814 Y6.6527
G01 X10.7427 Y6.3745
G01 X11.0760 Y5.9512
G01 X11.2364 Y5.4514
G01 X11.2148 Y4.9268
G01 X11.1074 Y4.6117
G01 X10.9332 Y4.3280
G01 X10.7010 Y4.0900
G01 X10.4265 Y3.9024
G01 X10.2814 Y3.8473
G01 X9.7701 Y3.7501
G01 X9.2563 Y3.8336
M63 P0 (laser off)

G00 X3.1055 Y38.8955
M62 P0 (laser on)
G01 X2.8519 Y39.0486
G01 X2.6334 Y39.2485
G01 X2.4583 Y39.4874
G01 X2.3336 Y39.7561
G01 X2.2501 Y40.2695
G01 X2.3469 Y40.7805
G01 X2.4734 Y41.0376
G01 X2.6464 Y41.2660
G01 X2.8597 Y41.4572
G01 X3.1055 Y41.6045
G01 X3.6096 Y41.7434
G01 X4.1307 Y41.7009
G01 X4.4622 Y41.5701
G01 X4.7536 Y41.3648
G01 X4.9883 Y41.0965
G01 X5.1531 Y40.7805
G01 X5.1558 Y40.7675
G01 X5.2499 Y40.2627
G01 X5.1664 Y39.7561
G01 X5.1558 Y39.7384
G01 X4.9959 Y39.4147
G01 X4.7602 Y39.1411
G01 X4.4661 Y38.9320
G01 X4.1307 Y38.7991
G01 X3.6096 Y38.7566
G01 X3.1055 Y38.8955
M63 P0 (laser off)

G00 X3.1055 Y58.3955
M62 P0 (laser on)
G01 X2.8597 Y58.5428
G01 X2.6464 Y58.7340
G01 X2.4734 Y58.9624
G01 X2.3469 Y59.2195
G01 X2.2501 Y59.7305
G01 X2.3336 Y60.2439
G01 X2.4583 Y60.5126
G01 X2.6333 Y60.7515
G01 X2.8519 Y60.9514
G01 X3.1055 Y61.1045
G01 X3.6096 Y61.2434
G01 X4.1307 Y61.2009
G01 X4.4661 Y61.0680
G01 X4.7602 Y60.8589
G01 X4.9959 Y60.5853
G01 X5.1558 Y60.2616
G01 X5.1664 Y60.2439
G01 X5.2499 Y59.7373
G01 X5.1558 Y59.2325
G01 X5.1531 Y59.2195
G01 X4.9883 Y58.9035
G01 X4.7536 Y58.6352
G01 X4.4622 Y58.4299
G01 X4.1307 Y58.2991
G01 X3.6096 Y58.2566
G01 X3.1055 Y58.3955
M63 P0 (laser off)

G00 X23.6080 Y38.8943
M62 P0 (laser on)
G01 X23.3536 Y39.0473
G01 X23.1343 Y39.2474
G01 X22.9587 Y39.4868
G01 X22.8336 Y39.7561
G01 X22.7501 Y40.2695
G01 X22.8469 Y40.7805
G01 X22.9738 Y41.0382
G01 X23.1474 Y41.2670
G01 X23.3614 Y41.4585
G01 X23.6080 Y41.6057
G01 X24.1122 Y41.7437
G01 X24.6332 Y41.7002
G01 X24.9639 Y41.5692
G01 X25.2546 Y41.3639
G01 X25.4887 Y41.0960
G01 X25.6531 Y40.7805
G01 X25.6583 Y40.7554
G01 X25.7500 Y40.2565
G01 X25.6664 Y39.7561
G01 X25.6583 Y39.7426
G01 X25.4983 Y39.4183
G01 X25.2630 Y39.1437
G01 X24.9689 Y38.9335
G01 X24.6332 Y38.7998
G01 X24.1122 Y38.7563
G01 X23.6080 Y38.8943
M63 P0 (laser off)

G00 X23.6080 Y58.3943
M62 P0 (laser on)
G01 X23.3614 Y58.5415
G01 X23.1474 Y58.7330
G01 X22.9738 Y58.9618
G01 X22.8469 Y59.2195
G01 X22.7501 Y59.7305
G01 X22.8336 Y60.2439
G01 X22.9587 Y60.5132
G01 X23.1343 Y60.7526
G01 X23.3536 Y60.9527
G01 X23.6080 Y61.1057
G01 X24.1122 Y61.2437
G01 X24.6332 Y61.2002
G01 X24.9689 Y61.0665
G01 X25.2630 Y60.8563
G01 X25.4983 Y60.5817
G01 X25.6583 Y60.2574
G01 X25.6664 Y60.2439
G01 X25.7500 Y59.7435
G01 X25.6583 Y59.2446
G01 X25.6531 Y59.2195
G01 X25.4887 Y58.9040
G01 X25.2546 Y58.6361
G01 X24.9639 Y58.4308
G01 X24.6332 Y58.2998
G01 X24.1122 Y58.2563
G01 X23.6080 Y58.3943
M63 P0 (laser off)

G00 X8.2312 Y9.0000
M62 P0 (laser on)
G01 X7.5945 Y9.0244
G01 X7.3515 Y9.1979
G01 X7.2448 Y9.4769
G01 X7.2500 Y10.0488
G01 X7.2500 Y11.0732
G01 X7.2500 Y17.2195
G01 X7.2500 Y18.2439
G01 X7.2650 Y18.6290
G01 X7.4996 Y18.9347
G01 X7.8624 Y19.0000
G01 X11.6671 Y19.0000
G01 X12.0193 Y18.9227
G01 X12.2376 Y18.6183
G01 X12.2500 Y18.2439
G01 X12.2500 Y10.0488
G01 X12.2550 Y9.4682
G01 X12.1392 Y9.1860
G01 X11.8805 Y9.0244
G01 X11.3065 Y9.0000
G01 X8.2312 Y9.0000
M63 P0 (laser off)

G00 X8.2312 Y81.0000
M62 P0 (laser on)
G01 X7.8624 Y81.0000
G01 X7.4996 Y81.0653
G01 X7.2650 Y81.3710
G01 X7.2500 Y81.7561
G01 X7.2500 Y89.9512
G01 X7.2448 Y90.5231
G01 X7.3515 Y90.8021
G01 X7.5945 Y90.9756
G01 X8.2312 Y91.0000
G01 X11.3065 Y91.0000
G01 X11.8805 Y90.9756
G01 X12.1392 Y90.8140
G01 X12.2550 Y90.5318
G01 X12.2500 Y89.9512
G01 X12.2500 Y81.7561
G01 X12.2376 Y81.3817
G01 X12.0193 Y81.0773
G01 X11.6671 Y81.0000
G01 X8.2312 Y81.0000
M63 P0 (laser off)

G00 X28.7337 Y81.0000
M62 P0 (laser on)
G01 X28.3644 Y81.0000
G01 X28.0008 Y81.0645
G01 X27.7652 Y81.3703
G01 X27.7500 Y81.7561
G01 X27.7500 Y89.9512
G01 X27.7448 Y90.5238
G01 X27.8522 Y90.8030
G01 X28.0966 Y90.9756
G01 X28.7337 Y91.0000
G01 X31.8090 Y91.0000
G01 X32.3826 Y90.9756
G01 X32.6400 Y90.8130
G01 X32.7550 Y90.5311
G01 X32.7500 Y89.9512
G01 X32.7500 Y81.7561
G01 X32.7378 Y81.3824
G01 X32.5205 Y81.0782
G01 X32.1691 Y81.0000
G01 X28.7337 Y81.0000
M63 P0 (laser off)

G00 X28.7337 Y9.0000
M62 P0 (laser on)
G01 X28.0966 Y9.0244
G01 X27.8522 Y9.1970
G01 X27.7448 Y9.4762
G01 X27.7500 Y10.0488
G01 X27.7500 Y18.2439
G01 X27.7652 Y18.6297
G01 X28.0008 Y18.9355
G01 X28.3644 Y19.0000
G01 X32.1691 Y19.0000
G01 X32.5205 Y18.9219
G01 X32.7378 Y18.6176
G01 X32.7500 Y18.2439
G01 X32.7500 Y10.0488
G01 X32.7550 Y9.4689
G01 X32.6400 Y9.1870
G01 X32.3826 Y9.0244
G01 X31.8090 Y9.0000
G01 X28.7337 Y9.0000
M63 P0 (laser off)

G00 X45.1357 Y58.1737
M62 P0 (laser on)
G01 X45.1157 Y58.1951
G01 X45.0034 Y58.4355
G01 X45.0000 Y59.2195
G01 X45.0000 Y67.4146
G01 X45.0216 Y67.6466
G01 X45.1357 Y67.8498
G01 X45.3690 Y67.9832
G01 X45.6372 Y68.0000
G01 X54.3618 Y68.0000
G01 X54.6112 Y67.9880
G01 X54.8330 Y67.8731
G01 X54.9727 Y67.6644
G01 X55.0000 Y67.4146
G01 X55.0000 Y59.2195
G01 X54.9972 Y58.4430
G01 X54.9161 Y58.1951
G01 X54.6638 Y58.0268
G01 X54.3618 Y58.0000
G01 X45.6335 Y58.0000
G01 X45.3609 Y58.0190
G01 X45.1357 Y58.1737
M63 P0 (laser off)

G00 X40.0100 Y6.0000
M62 P0 (laser on)
G01 X39.6257 Y6.0138
G01 X39.3182 Y6.2449
G01 X39.2500 Y6.6071
G01 X39.2500 Y6.9756
G01 X39.2500 Y20.2927
G01 X39.2600 Y20.6048
G01 X39.4181 Y20.8741
G01 X39.7010 Y20.9986
G01 X40.0100 Y21.0000
G01 X43.6126 Y21.0000
G01 X43.8854 Y20.9821
G01 X44.1106 Y20.8271
G01 X44.2450 Y20.5768
G01 X44.2500 Y20.2927
G01 X44.2500 Y6.9756
G01 X44.2500 Y6.5523
G01 X44.2232 Y6.3375
G01 X44.1106 Y6.1527
G01 X43.8783 Y6.0161
G01 X43.6094 Y6.0000
G01 X40.0100 Y6.0000
M63 P0 (laser off)

G00 X56.4121 Y79.0000
M62 P0 (laser on)
G01 X56.1248 Y79.0151
G01 X55.8791 Y79.1646
G01 X55.7553 Y79.4219
G01 X55.7500 Y79.7073
G01 X55.7500 Y93.0244
G01 X55.7922 Y93.7082
G01 X56.0521 Y93.9604
G01 X56.4121 Y94.0000
G01 X60.2618 Y94.0003
G01 X60.5126 Y93.9334
G01 X60.6829 Y93.7505
G01 X60.7534 Y93.5108
G01 X60.7500 Y93.0244
G01 X60.7500 Y79.7073
G01 X60.7311 Y79.3586
G01 X60.6499 Y79.1999
G01 X60.5126 Y79.0863
G01 X60.2655 Y78.9996
G01 X59.4874 Y79.0000
G01 X56.4121 Y79.0000
M63 P0 (laser off)

G00 X125.0955 Y-1.7737
M62 P0 (laser on)
G01 X124.9993 Y-1.5049
G01 X125.0000 Y-1.2195
G01 X125.0000 Y17.2195
G01 X124.9993 Y17.5049
G01 X125.0955 Y17.7737
G01 X125.3049 Y17.9609
G01 X125.5831 Y18.0000
G01 X129.5344 Y18.0001
G01 X129.8438 Y17.8630
G01 X129.9978 Y17.5597
G01 X130.0000 Y17.2195
G01 X130.0000 Y-1.2195
G01 X129.9978 Y-1.5597
G01 X129.8438 Y-1.8630
G01 X129.5344 Y-2.0001
G01 X129.1960 Y-2.0000
G01 X125.5831 Y-2.0000
G01 X125.3049 Y-1.9609
G01 X125.0955 Y-1.7737
M63 P0 (laser off)

G00 X-9.1960 Y-2.0000
M62 P0 (laser on)
G01 X-9.5344 Y-2.0001
G01 X-9.8438 Y-1.8630
G01 X-9.9978 Y-1.5597
G01 X-10.0000 Y-1.2195
G01 X-10.0000 Y17.2195
G01 X-9.9978 Y17.5597
G01 X-9.8438 Y17.8630
G01 X-9.5344 Y18.0001
G01 X-9.1960 Y18.0000
G01 X-5.5831 Y18.0000
G01 X-5.3049 Y17.9610
G01 X-5.0955 Y17.7737
G01 X-4.9993 Y17.5049
G01 X-5.0000 Y17.2195
G01 X-5.0000 Y-1.2195
G01 X-4.9993 Y-1.5050
G01 X-5.0955 Y-1.7737
G01 X-5.3049 Y-1.9610
G01 X-5.5831 Y-2.0000
G01 X-9.1960 Y-2.0000
M63 P0 (laser off)

G00 X-9.1960 Y81.0000
M62 P0 (laser on)
G01 X-9.5276 Y80.9996
G01 X-9.8336 Y81.1275
G01 X-9.9951 Y81.4211
G01 X-10.0000 Y81.7561
G01 X-10.0000 Y100.1951
G01 X-9.9998 Y100.5403
G01 X-9.8539 Y100.8532
G01 X-9.5412 Y100.9997
G01 X-9.1960 Y101.0000
G01 X-5.5894 Y101.0000
G01 X-5.3173 Y100.9660
G01 X-5.0955 Y100.8047
G01 X-4.9993 Y100.5075
G01 X-5.0000 Y100.1951
G01 X-5.0000 Y81.7561
G01 X-4.9999 Y81.4750
G01 X-5.0955 Y81.2105
G01 X-5.3114 Y81.0364
G01 X-5.5864 Y81.0000
G01 X-9.1960 Y81.0000
M63 P0 (laser off)

G00 X125.0955 Y81.2105
M62 P0 (laser on)
G01 X124.9999 Y81.4750
G01 X125.0000 Y81.7561
G01 X125.0000 Y100.1951
G01 X124.9993 Y100.5075
G01 X125.0955 Y100.8046
G01 X125.3173 Y100.9660
G01 X125.5894 Y101.0000
G01 X129.5412 Y100.9997
G01 X129.8539 Y100.8532
G01 X129.9997 Y100.5403
G01 X130.0000 Y100.1951
G01 X130.0000 Y81.7561
G01 X129.9951 Y81.4211
G01 X129.8336 Y81.1275
G01 X129.5276 Y80.9996
G01 X129.1960 Y81.0000
G01 X125.5864 Y81.0000
G01 X125.3114 Y81.0364
G01 X125.0955 Y81.2105
M63 P0 (laser off)

G00 X4.1307 Y63.0000
M62 P0 (laser on)
G01 X3.7803 Y63.0499
G01 X3.6351 Y63.1582
G01 X3.5481 Y63.3171
G01 X3.5000 Y64.3415
G01 X3.5000 Y66.3902
G01 X3.5000 Y67.4146
G01 X3.5266 Y67.6624
G01 X3.6640 Y67.8703
G01 X3.8830 Y67.9867
G01 X4.1307 Y68.0000
G01 X23.6080 Y68.0000
G01 X24.2157 Y67.9537
G01 X24.4446 Y67.7299
G01 X24.5000 Y67.4146
G01 X24.5000 Y64.3415
G01 X24.4653 Y63.3171
G01 X24.3185 Y63.1145
G01 X24.0934 Y63.0052
G01 X23.6080 Y63.0000
G01 X4.1307 Y63.0000
M63 P0 (laser off)

G00 X-17.1022 Y-14.5366
M62 P0 (laser on)
G01 X-16.3719 Y-14.8081
G01 X-15.3467 Y-14.9880
G01 X-14.3216 Y-15.0000
G01 X135.3467 Y-14.9880
G01 X136.3719 Y-14.8081
G01 X137.1022 Y-14.5366
G01 X137.3970 Y-14.3880
G01 X137.9331 Y-14.0493
G01 X138.4221 Y-13.6454
G01 X138.5587 Y-13.5122
G01 X138.9810 Y-13.0251
G01 X139.3371 Y-12.4878
G01 X139.4472 Y-12.2852
G01 X139.7811 Y-11.4634
G01 X139.9807 Y-10.4390
G01 X140.0000 Y-9.4146
G01 X140.0000 Y109.4146
G01 X139.9807 Y110.4390
G01 X139.7811 Y111.4634
G01 X139.4472 Y112.2852
G01 X139.3371 Y112.4878
G01 X138.9810 Y113.0251
G01 X138.5587 Y113.5122
G01 X138.4221 Y113.6454
G01 X137.9331 Y114.0493
G01 X137.3970 Y114.3880
G01 X137.1022 Y114.5366
G01 X136.3719 Y114.8081
G01 X135.3467 Y114.9880
G01 X134.3216 Y115.0000
G01 X-15.3467 Y114.9880
G01 X-16.3719 Y114.8081
G01 X-17.1022 Y114.5366
G01 X-17.3970 Y114.3880
G01 X-17.9331 Y114.0493
G01 X-18.4221 Y113.6454
G01 X-18.5587 Y113.5122
G01 X-18.9810 Y113.0251
G01 X-19.3371 Y112.4878
G01 X-19.4472 Y112.2852
G01 X-19.7811 Y111.4634
G01 X-19.9807 Y110.4390
G01 X-20.0000 Y109.4146
G01 X-20.0000 Y-9.4146
G01 X-19.9807 Y-10.4390
G01 X-19.7810 Y-11.4634
G01 X-19.4472 Y-12.2852
G01 X-19.3371 Y-12.4878
G01 X-18.9810 Y-13.0251
G01 X-18.5587 Y-13.5122
G01 X-18.4221 Y-13.6454
G01 X-17.9331 Y-14.0493
G01 X-17.3970 Y-14.3880
G01 X-17.1022 Y-14.5366
M63 P0 (laser off)

M5 (disable laser)
G00 X0.0 Y0.0 (move to 0)
M2 (end)
