(generated by ImplicitCAD, based of hacklab wiki example)
M63 P0 (laser off)
G0 Z0.002 (laser off)
G21 (units=mm)
F400 (set feedrate)
M3 S1 (enable laser)

G00 X184.7175 Y12.8540
M62 P0 (laser on)
G01 X184.3423 Y13.1287
G01 X184.0244 Y13.4681
G01 X183.6428 Y14.1672
G01 X183.5005 Y14.9508
G01 X183.6083 Y15.7280
G01 X183.9518 Y16.4335
G01 X184.2970 Y16.8302
G01 X184.7175 Y17.1460
G01 X185.4309 Y17.4344
G01 X186.1983 Y17.4921
G01 X186.9916 Y17.2949
G01 X187.6790 Y16.8523
G01 X188.0482 Y16.4335
G01 X188.3917 Y15.7280
G01 X188.4995 Y14.9508
G01 X188.3572 Y14.1672
G01 X187.9757 Y13.4681
G01 X187.6790 Y13.1477
G01 X186.9916 Y12.7051
G01 X186.1983 Y12.5079
G01 X185.4309 Y12.5656
G01 X184.7175 Y12.8540
M63 P0 (laser off)

G00 X184.7175 Y218.8540
M62 P0 (laser on)
G01 X184.2970 Y219.1698
G01 X183.9518 Y219.5665
G01 X183.6083 Y220.2720
G01 X183.5005 Y221.0492
G01 X183.6428 Y221.8328
G01 X184.0244 Y222.5319
G01 X184.3423 Y222.8713
G01 X184.7175 Y223.1460
G01 X185.4310 Y223.4344
G01 X186.1983 Y223.4921
G01 X186.9916 Y223.2949
G01 X187.6790 Y222.8523
G01 X187.9757 Y222.5319
G01 X188.3572 Y221.8328
G01 X188.4995 Y221.0492
G01 X188.3917 Y220.2720
G01 X188.0482 Y219.5665
G01 X187.6790 Y219.1477
G01 X186.9916 Y218.7051
G01 X186.1983 Y218.5079
G01 X185.4310 Y218.5656
G01 X184.7175 Y218.8540
M63 P0 (laser off)

G00 X23.3211 Y13.1477
M62 P0 (laser on)
G01 X23.0244 Y13.4681
G01 X22.6428 Y14.1672
G01 X22.5005 Y14.9508
G01 X22.6083 Y15.7280
G01 X22.9518 Y16.4335
G01 X23.3211 Y16.8523
G01 X24.0084 Y17.2949
G01 X24.8018 Y17.4921
G01 X25.5691 Y17.4344
G01 X26.2825 Y17.1460
G01 X26.7030 Y16.8302
G01 X27.0482 Y16.4335
G01 X27.3917 Y15.7280
G01 X27.4995 Y14.9508
G01 X27.3572 Y14.1672
G01 X26.9756 Y13.4681
G01 X26.6577 Y13.1287
G01 X26.2825 Y12.8540
G01 X25.5691 Y12.5656
G01 X24.8018 Y12.5079
G01 X24.0084 Y12.7051
G01 X23.3211 Y13.1477
M63 P0 (laser off)

G00 X23.3211 Y219.1477
M62 P0 (laser on)
G01 X22.9518 Y219.5665
G01 X22.6083 Y220.2720
G01 X22.5005 Y221.0492
G01 X22.6428 Y221.8328
G01 X23.0244 Y222.5319
G01 X23.3211 Y222.8523
G01 X24.0084 Y223.2949
G01 X24.8018 Y223.4921
G01 X25.5691 Y223.4344
G01 X26.2825 Y223.1460
G01 X26.6577 Y222.8713
G01 X26.9756 Y222.5319
G01 X27.3572 Y221.8328
G01 X27.4995 Y221.0492
G01 X27.3917 Y220.2720
G01 X27.0482 Y219.5665
G01 X26.7030 Y219.1698
G01 X26.2825 Y218.8540
G01 X25.5691 Y218.5656
G01 X24.8018 Y218.5079
G01 X24.0084 Y218.7051
G01 X23.3211 Y219.1477
M63 P0 (laser off)

G00 X11.4754 Y25.0000
M62 P0 (laser on)
G01 X10.7150 Y25.0000
G01 X10.3102 Y25.0357
G01 X10.0298 Y25.3298
G01 X10.0000 Y26.8126
G01 X10.0000 Y43.1225
G01 X10.0112 Y44.6052
G01 X10.2682 Y44.9444
G01 X10.6901 Y45.0000
G01 X14.4368 Y45.0000
G01 X14.7816 Y44.9134
G01 X14.9588 Y44.6052
G01 X15.0000 Y43.1225
G01 X15.0000 Y26.8126
G01 X14.9960 Y25.3298
G01 X14.7680 Y25.0774
G01 X14.4368 Y25.0000
G01 X11.4754 Y25.0000
M63 P0 (laser off)

G00 X196.5632 Y25.0000
M62 P0 (laser on)
G01 X196.2320 Y25.0774
G01 X196.0041 Y25.3298
G01 X196.0000 Y26.8126
G01 X196.0000 Y43.1225
G01 X196.0412 Y44.6052
G01 X196.2184 Y44.9134
G01 X196.5632 Y45.0000
G01 X200.3099 Y45.0000
G01 X200.7318 Y44.9444
G01 X200.9888 Y44.6052
G01 X201.0000 Y43.1225
G01 X201.0000 Y26.8126
G01 X200.9702 Y25.3298
G01 X200.6898 Y25.0357
G01 X200.2850 Y25.0000
G01 X196.5632 Y25.0000
M63 P0 (laser off)

G00 X11.4754 Y108.0000
M62 P0 (laser on)
G01 X10.7023 Y108.0000
G01 X10.2888 Y108.0453
G01 X10.0193 Y108.3623
G01 X10.0000 Y109.8450
G01 X10.0000 Y126.1550
G01 X10.0193 Y127.6377
G01 X10.2888 Y127.9547
G01 X10.7023 Y128.0000
G01 X14.4368 Y128.0000
G01 X14.7834 Y127.9124
G01 X15.0122 Y127.6377
G01 X15.0000 Y126.1550
G01 X15.0000 Y109.8450
G01 X15.0122 Y108.3623
G01 X14.7834 Y108.0876
G01 X14.4368 Y108.0000
G01 X11.4754 Y108.0000
M63 P0 (laser off)

G00 X196.5632 Y108.0000
M62 P0 (laser on)
G01 X196.2166 Y108.0876
G01 X195.9878 Y108.3623
G01 X196.0000 Y109.8450
G01 X196.0000 Y126.1550
G01 X195.9878 Y127.6377
G01 X196.2166 Y127.9124
G01 X196.5632 Y128.0000
G01 X200.2977 Y128.0000
G01 X200.7113 Y127.9547
G01 X200.9807 Y127.6377
G01 X201.0000 Y126.1550
G01 X201.0000 Y109.8450
G01 X200.9807 Y108.3623
G01 X200.7113 Y108.0453
G01 X200.2977 Y108.0000
G01 X196.5632 Y108.0000
M63 P0 (laser off)

G00 X11.4754 Y191.0000
M62 P0 (laser on)
G01 X10.6901 Y191.0000
G01 X10.2682 Y191.0556
G01 X10.0112 Y191.3948
G01 X10.0000 Y192.8775
G01 X10.0000 Y209.1874
G01 X10.0298 Y210.6702
G01 X10.3102 Y210.9643
G01 X10.7150 Y211.0000
G01 X14.4368 Y211.0000
G01 X14.7680 Y210.9226
G01 X14.9960 Y210.6702
G01 X15.0000 Y209.1874
G01 X15.0000 Y192.8775
G01 X14.9588 Y191.3948
G01 X14.7816 Y191.0866
G01 X14.4368 Y191.0000
G01 X11.4754 Y191.0000
M63 P0 (laser off)

G00 X196.5632 Y191.0000
M62 P0 (laser on)
G01 X196.2184 Y191.0866
G01 X196.0413 Y191.3948
G01 X196.0000 Y192.8775
G01 X196.0000 Y209.1874
G01 X196.0041 Y210.6702
G01 X196.2320 Y210.9226
G01 X196.5632 Y211.0000
G01 X200.2850 Y211.0000
G01 X200.6898 Y210.9643
G01 X200.9702 Y210.6702
G01 X201.0000 Y209.1874
G01 X201.0000 Y192.8775
G01 X200.9888 Y191.3948
G01 X200.7318 Y191.0557
G01 X200.3099 Y191.0000
G01 X196.5632 Y191.0000
M63 P0 (laser off)

G00 X20.3597 Y51.0000
M62 P0 (laser on)
G01 X19.3194 Y51.0284
G01 X18.9958 Y51.4708
G01 X19.0000 Y52.0189
G01 X19.0000 Y72.7770
G01 X19.0695 Y73.2565
G01 X19.4813 Y73.5118
G01 X20.3597 Y73.5000
G01 X58.5150 Y73.5019
G01 X58.8579 Y73.3229
G01 X58.9965 Y73.0675
G01 X59.0000 Y72.7770
G01 X59.0000 Y51.5848
G01 X58.9809 Y51.3617
G01 X58.8579 Y51.1746
G01 X58.5142 Y50.9982
G01 X57.3772 Y51.0000
G01 X20.3597 Y51.0000
M63 P0 (laser off)

G00 X6.1443 Y0.1236
M62 P0 (laser on)
G01 X7.0333 Y0.0145
G01 X8.5140 Y0.0000
G01 X203.9667 Y0.0145
G01 X204.8557 Y0.1236
G01 X205.4474 Y0.2572
G01 X206.9281 Y0.8293
G01 X208.1383 Y1.6063
G01 X208.4088 Y1.8296
G01 X209.5657 Y3.0890
G01 X209.8895 Y3.5726
G01 X210.4047 Y4.5717
G01 X210.8594 Y6.0545
G01 X211.0000 Y7.5372
G01 X211.0000 Y228.4628
G01 X210.8594 Y229.9456
G01 X210.4047 Y231.4283
G01 X209.8895 Y232.4274
G01 X209.5657 Y232.9110
G01 X208.4088 Y234.1704
G01 X208.1383 Y234.3937
G01 X206.9281 Y235.1707
G01 X205.4474 Y235.7428
G01 X204.8558 Y235.8764
G01 X203.9667 Y235.9855
G01 X202.4860 Y236.0000
G01 X7.0333 Y235.9855
G01 X6.1442 Y235.8764
G01 X5.5526 Y235.7428
G01 X4.0719 Y235.1707
G01 X2.8617 Y234.3937
G01 X2.5912 Y234.1705
G01 X1.4343 Y232.9110
G01 X1.1105 Y232.4274
G01 X0.5953 Y231.4283
G01 X0.1406 Y229.9456
G01 X-0.0000 Y228.4628
G01 X0.0000 Y226.9801
G01 X0.0000 Y9.0199
G01 X-0.0000 Y7.5372
G01 X0.1406 Y6.0545
G01 X0.5953 Y4.5717
G01 X1.1105 Y3.5726
G01 X1.4343 Y3.0890
G01 X2.5912 Y1.8295
G01 X2.8617 Y1.6063
G01 X4.0719 Y0.8293
G01 X5.5526 Y0.2572
G01 X6.1443 Y0.1236
M63 P0 (laser off)

M5 (disable laser)
G00 X0.0 Y0.0 (move to 0)
M2 (end)